icons/svg/functional-icons/aerialway_station_small.svg

<?xml version="1.0" encoding="UTF-8" standalone="no"?>
<svg
   xmlns:dc="http://purl.org/dc/elements/1.1/"
   xmlns:cc="http://creativecommons.org/ns#"
   xmlns:rdf="http://www.w3.org/1999/02/22-rdf-syntax-ns#"
   xmlns:svg="http://www.w3.org/2000/svg"
   xmlns="http://www.w3.org/2000/svg"
   xmlns:sodipodi="http://sodipodi.sourceforge.net/DTD/sodipodi-0.dtd"
   xmlns:inkscape="http://www.inkscape.org/namespaces/inkscape"
   width="580"
   height="580"
   id="svg2"
   version="1.1"
   inkscape:version="0.91 r"
   sodipodi:docname="aerialway_station_small.svg">
  <defs
     id="defs13" />
  <sodipodi:namedview
     pagecolor="#ffffff"
     bordercolor="#666666"
     borderopacity="1"
     objecttolerance="10"
     gridtolerance="10"
     guidetolerance="10"
     inkscape:pageopacity="0"
     inkscape:pageshadow="2"
     inkscape:window-width="1920"
     inkscape:window-height="1004"
     id="namedview11"
     showgrid="false"
     inkscape:zoom="0.8137931"
     inkscape:cx="389.57233"
     inkscape:cy="334.62504"
     inkscape:window-x="1680"
     inkscape:window-y="0"
     inkscape:window-maximized="1"
     inkscape:current-layer="svg2">
    <inkscape:grid
       type="xygrid"
       id="grid4234" />
  </sodipodi:namedview>
  <metadata
     id="metadata2975">image/svg+xmlen<rdf:RDF>
  <cc:Work
     rdf:about="">
    <dc:format>image/svg+xml</dc:format>
    <dc:type
       rdf:resource="http://purl.org/dc/dcmitype/StillImage" />
  </cc:Work>
</rdf:RDF>
</metadata>
  <path
     sodipodi:type="inkscape:offset"
     inkscape:radius="35.284286"
     inkscape:original="M 373.62695 170.39453 L 175.17773 276.46094 L 186.375 297.42578 L 319.51953 226.26367 L 319.45117 273.83984 L 301.72656 273.83984 L 288.07031 273.83984 C 271.39121 273.83984 258.09766 287.49885 258.09766 304.18359 L 258.09766 365.96094 C 258.97594 382.79422 271.512 396.75675 289.2793 396.42773 L 363.60547 396.42773 C 382.39008 396.92325 395.59851 377.03629 395.875 365.96094 L 395.875 304.18359 C 395.875 287.49885 382.5818 273.83984 365.90234 273.83984 L 350.3125 273.83984 L 334.44727 273.83984 L 334.52539 218.24414 L 384.82617 191.35938 L 373.62695 170.39453 z M 286.63477 288.58789 L 367.45117 288.58789 C 373.79532 288.58789 379.29492 293.60699 379.29492 299.95312 L 379.29492 342.02344 C 379.29492 348.36958 373.79532 353.38867 367.45117 353.38867 L 286.63477 353.38867 C 280.29063 353.38867 274.91016 348.36958 274.91016 342.02344 L 274.91016 299.95312 C 274.91016 293.60699 280.29063 288.58789 286.63477 288.58789 z "
     style="color:#000000;clip-rule:nonzero;display:inline;overflow:visible;visibility:visible;opacity:0.75400002;isolation:auto;mix-blend-mode:normal;color-interpolation:sRGB;color-interpolation-filters:linearRGB;solid-color:#000000;solid-opacity:1;fill:#fefefe;fill-opacity:1;fill-rule:nonzero;stroke:none;stroke-width:5;stroke-linecap:butt;stroke-linejoin:miter;stroke-miterlimit:4;stroke-dasharray:none;stroke-dashoffset:0;stroke-opacity:1;color-rendering:auto;image-rendering:auto;shape-rendering:auto;text-rendering:auto;enable-background:accumulate"
     id="path4232"
     d="m 372.92188,135.11914 a 35.287815,35.287815 0 0 0 -15.92774,4.15625 L 158.54492,245.3418 a 35.287815,35.287815 0 0 0 -14.49023,47.74218 l 11.19726,20.96485 a 35.287815,35.287815 0 0 0 47.75586,14.49609 l 19.80469,-10.58594 0,48.00196 a 35.287815,35.287815 0 0 0 0.0488,1.83789 c 1.73566,33.26604 30.51976,64.5831 67.07031,63.90625 l -0.65234,0.008 74.32617,0 -0.92969,-0.0137 c 22.04888,0.58163 39.51089,-10.69219 50.18945,-22.51563 10.67857,-11.82344 17.80827,-23.3173 18.28321,-42.34179 a 35.287815,35.287815 0 0 0 0.0117,-0.88086 l 0,-61.77735 c 0,-33.76676 -26.64968,-62.72272 -60.26954,-65.36718 l 30.56836,-16.33789 a 35.287815,35.287815 0 0 0 14.49024,-47.74414 L 404.75,153.76953 a 35.287815,35.287815 0 0 0 -31.82812,-18.65039 z" />
  <path
     style="color:#000000;clip-rule:nonzero;display:inline;overflow:visible;visibility:visible;opacity:1;isolation:auto;mix-blend-mode:normal;color-interpolation:sRGB;color-interpolation-filters:linearRGB;solid-color:#000000;solid-opacity:1;fill:#0092da;fill-opacity:1;fill-rule:nonzero;stroke:#0092da;stroke-width:5.00000048;stroke-linecap:butt;stroke-linejoin:miter;stroke-miterlimit:4;stroke-dasharray:none;stroke-dashoffset:0;stroke-opacity:1;color-rendering:auto;image-rendering:auto;shape-rendering:auto;text-rendering:auto;enable-background:accumulate"
     d="M 373.62695 171.27734 L 175.17773 277.34375 L 186.375 298.30859 L 319.51953 227.14648 L 319.45117 274.72266 L 301.72656 274.72266 L 288.07031 274.72266 C 271.39121 274.72266 258.09766 288.38167 258.09766 305.06641 L 258.09766 366.84375 C 258.97594 383.67703 271.512 397.63957 289.2793 397.31055 L 363.60547 397.31055 C 382.39008 397.80607 395.59851 377.9191 395.875 366.84375 L 395.875 305.06641 C 395.875 288.38167 382.5818 274.72266 365.90234 274.72266 L 350.3125 274.72266 L 334.44727 274.72266 L 334.52539 219.12695 L 384.82617 192.24219 L 373.62695 171.27734 z M 286.63477 289.4707 L 367.45117 289.4707 C 373.79532 289.4707 379.29492 294.4898 379.29492 300.83594 L 379.29492 342.90625 C 379.29492 349.25239 373.79532 354.27148 367.45117 354.27148 L 286.63477 354.27148 C 280.29063 354.27148 274.91016 349.25239 274.91016 342.90625 L 274.91016 300.83594 C 274.91016 294.4898 280.29063 289.4707 286.63477 289.4707 z "
     id="rect4085" />
</svg>

<svg width="580" height="580" viewBox="0 0 580 580" fill="none" xmlns="http://www.w3.org/2000/svg">
<path opacity="0.754" d="M372.922 135.119C367.359 135.23 361.902 136.654 356.994 139.276L158.545 245.342C150.294 249.753 144.133 257.26 141.416 266.213C138.698 275.166 139.648 284.831 144.055 293.084L155.252 314.049C157.436 318.137 160.403 321.754 163.985 324.695C167.567 327.636 171.693 329.842 176.128 331.188C180.562 332.535 185.219 332.994 189.831 332.54C194.443 332.087 198.921 330.729 203.008 328.545L222.813 317.959V365.961C222.813 366.574 222.829 367.187 222.862 367.799C224.597 401.065 253.381 432.382 289.932 431.705L289.279 431.713H363.606L362.676 431.7C384.725 432.281 402.187 421.007 412.865 409.184C423.544 397.361 430.674 385.867 431.149 366.842C431.156 366.549 431.16 366.255 431.16 365.961V304.184C431.16 270.417 404.511 241.461 370.891 238.817L401.459 222.479C409.711 218.068 415.872 210.56 418.59 201.607C421.307 192.654 420.357 182.988 415.949 174.735L404.75 153.77C401.682 148.027 397.085 143.246 391.467 139.954C385.85 136.663 379.432 134.989 372.922 135.119V135.119Z" fill="#FEFEFE"/>
<path d="M373.627 171.277L175.178 277.344L186.375 298.309L319.52 227.146L319.451 274.723H301.727H288.07C271.391 274.723 258.098 288.382 258.098 305.066V366.844C258.976 383.677 271.512 397.64 289.279 397.311H363.605C382.39 397.806 395.599 377.919 395.875 366.844V305.066C395.875 288.382 382.582 274.723 365.902 274.723H350.312H334.447L334.525 219.127L384.826 192.242L373.627 171.277ZM286.635 289.471H367.451C373.795 289.471 379.295 294.49 379.295 300.836V342.906C379.295 349.252 373.795 354.271 367.451 354.271H286.635C280.291 354.271 274.91 349.252 274.91 342.906V300.836C274.91 294.49 280.291 289.471 286.635 289.471Z" fill="#0092DA" stroke="#0092DA" stroke-width="5"/>
</svg>
